alura/assets/api/cursos/python-gpt-crie-chatbot-com-ia.svg

<svg width="50" height="50" viewBox="0 0 50 50" fill="none" xmlns="http://www.w3.org/2000/svg">
<path d="M47.2 25.6L41.4 22.8L40.1 11.5L22.6 10.4C19.4 10.4 1.5 7.89997 1.5 11.1L2.2 36.7L20 38L21.7 42.9L29.1 44.5L48.3 37.7C49.2 37.3 48.2 27.7 47.2 25.6Z" fill="#E589EF"/>
<path d="M19.2001 36.7001H3.0001C2.6001 36.7001 2.3001 36.4 2.3001 36V15.6H39.4001V23.1C39.4001 23.4 39.7001 23.7 40.0001 23.7C40.3001 23.7 40.6001 23.4 40.6001 23.1V12.2C40.6001 11.2 39.8001 10.3 38.7001 10.3H3.0001C2.0001 10.3 1.1001 11.1 1.1001 12.2V35.9001C1.1001 36.9001 1.9001 37.8 3.0001 37.8H19.3001C19.6001 37.8 19.9001 37.5001 19.9001 37.2001C19.9001 36.9001 19.6001 36.7001 19.2001 36.7001ZM2.3001 12.2C2.3001 11.8 2.6001 11.5 3.0001 11.5H38.7001C39.1001 11.5 39.4001 11.8 39.4001 12.2V14.4H2.3001V12.2Z" fill="#444444"/>
<path d="M33.2001 12.5H33C32.7 12.5 32.4001 12.8 32.4001 13.1C32.4001 13.4 32.7 13.7 33 13.7H33.2001C33.5001 13.7 33.8 13.4 33.8 13.1C33.8 12.8 33.5001 12.5 33.2001 12.5ZM35.3 12.5H35.1C34.8 12.5 34.5 12.8 34.5 13.1C34.5 13.4 34.8 13.7 35.1 13.7H35.3C35.6 13.7 35.9001 13.4 35.9001 13.1C35.8001 12.8 35.6 12.5 35.3 12.5ZM37.3 12.5H37.1C36.8 12.5 36.5 12.8 36.5 13.1C36.5 13.4 36.8 13.7 37.1 13.7H37.3C37.6 13.7 37.9001 13.4 37.9001 13.1C37.9001 12.8 37.6 12.5 37.3 12.5ZM33 38.9C32.9 38.7 32.7001 38.5 32.4001 38.5H32.2001C32.0001 38.5 31.9 38.7 31.8 38.8C31.7 38.9 31.7 39.1 31.8 39.3V39.4L31.9 39.7L31.1 40.3L30.4 39.8C30.3 39.7 30.2 39.7 30 39.7H29.7001C29.4001 39.8 29.1001 39.9 28.7001 40C28.5001 40 28.3001 40.2 28.2001 40.4L27.9 41.2L26.9 41.1L26.8 40.3C26.8 40.1 26.6 39.9 26.4 39.8C26.1 39.7 25.8 39.5 25.5 39.3C25.4 39.2 25.3001 39.2 25.2001 39.2H24.7001L24.1 39.4L23.5 38.6L24 37.9C24.1 37.7 24.2 37.5 24.1 37.3C24 37 23.9 36.7 23.8 36.3C23.8 36.1 23.6 35.9 23.4 35.8L22.6 35.5L22.7001 34.5H23L23.5 34.4C23.7 34.4 23.9 34.2 24 34C24.1 33.7 24.3 33.4 24.5 33.1C24.6 32.9 24.7 32.7 24.6 32.5L24.3 31.7L25.1 31.1L25.8 31.6C25.9 31.7 26.0001 31.7 26.2001 31.7H26.5C26.8 31.6 27.1 31.5 27.5 31.4C27.7 31.4 27.9 31.2 28 31L28.3 30.2L29.3 30.3V30.7C29.4 31 29.6 31.1 29.9 31.1H30.1C30.4 31 30.6 30.7 30.5 30.4L30.7001 30C30.7001 29.7 30.4 29.4 30 29.3L28.3 29.1H28.2001C27.9001 29.1 27.6 29.3 27.4 29.6L27.1 30.4C26.9 30.4 26.7 30.5 26.6 30.5L26 30C25.9 29.9 25.7 29.8 25.6 29.8C25.4 29.8 25.2 29.8 25.1 30L23.7001 31C23.4001 31.2 23.3 31.6 23.5 31.9L23.8 32.7C23.7 32.9 23.6 33 23.5 33.2L22.7001 33.3C22.5001 33.3 22.4001 33.4 22.2001 33.5C22.1001 33.6 22 33.8 22 33.9L21.8 35.6C21.8 35.9 22 36.3 22.3 36.4L23.1 36.7C23.1 36.9 23.2001 37.1 23.2001 37.2L22.7001 37.9C22.5001 38.2 22.5001 38.6 22.7001 38.8L23.8 40.2L24 40.4C24.1 40.5 24.2 40.5 24.4 40.5C24.5 40.5 24.6001 40.5 24.7001 40.4L25.5 40.1C25.6 40.2 25.8 40.3 25.9 40.3H26L26.1 41.1C26.1 41.4 26.4 41.7 26.8 41.8L28.1 42L28.5 42.1H28.6C28.9 42.1 29.2 41.9 29.4 41.6L29.7001 40.8C29.9001 40.8 30.1001 40.7 30.2001 40.7L30.9 41.2C31 41.3 31.2 41.4 31.3 41.4H31.6C31.7 41.4 31.8 41.3 31.8 41.3L33.2001 40.3C33.5001 40.1 33.6001 39.7 33.4001 39.4L33 38.9Z" fill="#444444"/>
<path d="M46.3001 31.5999L45.3001 31.2999C45.2001 30.9999 45.1001 30.7999 45.0001 30.5999L45.6001 29.6999C45.8001 29.3999 45.8001 28.9999 45.5001 28.6999L44.8001 27.8999L44.2001 27.1999C44.1001 27.0999 44.0001 26.9999 43.9001 26.9999C43.7001 26.8999 43.4001 26.8999 43.2001 26.9999L42.5001 27.3999L42.3001 27.4999C42.1001 27.3999 41.8001 27.2999 41.6001 27.1999L41.4001 26.0999C41.3001 25.6999 41.0001 25.4999 40.7001 25.4999L38.7001 25.3999C38.3001 25.3999 38.0001 25.5999 37.9001 25.9999L37.6001 26.9999C37.3001 27.0999 37.1001 27.1999 36.9001 27.2999L36.0001 26.6999C35.7001 26.4999 35.3001 26.4999 35.0001 26.7999L33.3001 27.9999C33.0001 28.1999 33.0001 28.5999 33.1001 28.9999L33.6001 29.9999C33.5001 30.1999 33.4001 30.4999 33.3001 30.6999L32.2001 30.8999C31.8001 30.9999 31.6001 31.2999 31.6001 31.5999L31.5001 33.5999C31.5001 33.9999 31.7001 34.2999 32.1001 34.3999L33.1001 34.6999C33.2001 34.9999 33.3001 35.1999 33.4001 35.3999L32.8001 36.2999C32.6001 36.5999 32.6001 36.9999 32.9001 37.2999L34.3001 38.7999C34.3001 38.8999 34.4001 38.8999 34.5001 38.8999C34.7001 38.9999 35.0001 39.0999 35.3001 38.8999L36.3001 38.3999C36.5001 38.4999 36.8001 38.5999 37.0001 38.6999L37.2001 39.7999C37.3001 40.1999 37.6001 40.3999 37.9001 40.3999L39.9001 40.4999H40.2001C40.4001 40.3999 40.6001 40.1999 40.7001 39.9999L41.0001 38.9999C41.3001 38.8999 41.5001 38.7999 41.7001 38.6999L42.6001 39.2999C42.9001 39.4999 43.3001 39.4999 43.5001 39.2999L45.0001 37.8999C45.3001 37.6999 45.3001 37.2999 45.2001 36.8999L44.7001 35.8999C44.8001 35.6999 45.0001 35.3999 45.0001 35.1999L46.0001 34.9999C46.4001 34.8999 46.6001 34.5999 46.6001 34.2999L46.7001 32.2999C46.9001 31.9999 46.7001 31.6999 46.3001 31.5999ZM45.6001 33.9999L44.7001 34.1999H44.6001C44.5001 34.1999 44.3001 34.2999 44.2001 34.3999C44.2001 34.4999 44.1001 34.4999 44.1001 34.5999C44.0001 34.9999 43.8001 35.2999 43.6001 35.6999C43.5001 35.8999 43.5001 36.0999 43.6001 36.2999L44.1001 37.2999L43.1001 38.1999L42.2001 37.5999C42.0001 37.4999 41.8001 37.4999 41.6001 37.5999C41.2001 37.7999 40.9001 37.8999 40.5001 37.9999C40.4001 37.9999 40.3001 38.0999 40.3001 38.0999C40.2001 38.1999 40.1001 38.2999 40.1001 38.3999L39.8001 39.3999L38.4001 39.2999L38.0001 38.2999C38.0001 38.0999 37.8001 37.8999 37.6001 37.7999C37.2001 37.6999 36.9001 37.4999 36.5001 37.2999C36.3001 37.1999 36.1001 37.1999 35.9001 37.2999L34.9001 37.7999L34.0001 36.7999L34.6001 35.8999C34.7001 35.6999 34.7001 35.4999 34.6001 35.2999C34.4001 34.8999 34.3001 34.5999 34.2001 34.1999C34.2001 33.9999 34.0001 33.7999 33.8001 33.6999L32.8001 33.3999L32.9001 31.9999L34.0001 31.7999C34.2001 31.7999 34.4001 31.5999 34.5001 31.3999C34.6001 30.9999 34.8001 30.6999 35.0001 30.2999C35.1001 30.0999 35.1001 29.8999 35.0001 29.6999L34.5001 28.6999L35.5001 27.7999L36.4001 28.3999C36.6001 28.4999 36.8001 28.4999 37.0001 28.3999C37.4001 28.1999 37.7001 28.0999 38.1001 27.9999C38.3001 27.9999 38.5001 27.7999 38.6001 27.5999L38.9001 26.5999L40.3001 26.6999L40.5001 27.7999C40.5001 27.9999 40.7001 28.1999 40.9001 28.2999C41.3001 28.3999 41.6001 28.5999 42.0001 28.7999C42.2001 28.8999 42.4001 28.8999 42.6001 28.7999L43.6001 28.2999L43.9001 28.6999L44.5001 29.2999L43.9001 30.1999C43.8001 30.3999 43.8001 30.5999 43.9001 30.7999C44.1001 31.1999 44.2001 31.4999 44.3001 31.8999C44.3001 32.0999 44.5001 32.2999 44.7001 32.3999L45.7001 32.6999L45.6001 33.9999ZM29.9001 22.3999H11.7001C11.1001 22.3999 10.6001 22.5999 10.2001 22.9999C9.8001 23.3999 9.6001 23.9999 9.6001 24.4999C9.6001 24.9999 9.8001 25.5999 10.2001 25.9999C10.6001 26.3999 11.1001 26.5999 11.7001 26.5999H29.9001C31.1001 26.5999 32.1001 25.5999 32.1001 24.3999C32.1001 23.9999 32.0001 23.6999 31.8001 23.2999C31.4001 22.7999 30.7001 22.3999 29.9001 22.3999ZM29.9001 25.5999H11.7001C11.1001 25.5999 10.7001 25.0999 10.7001 24.5999C10.7001 23.9999 11.2001 23.5999 11.7001 23.5999H29.8001C30.2001 23.5999 30.5001 23.7999 30.7001 24.0999C30.8001 24.2999 30.8001 24.3999 30.8001 24.5999C30.9001 25.1999 30.5001 25.5999 29.9001 25.5999Z" fill="#444444"/>
<path d="M11.8999 24.6001H18.9999" stroke="#444444" stroke-width="0.5" stroke-miterlimit="10" stroke-linecap="round" stroke-linejoin="round"/>
<path d="M28.4 37.4C29.3388 37.4 30.1 36.6389 30.1 35.7C30.1 34.7611 29.3388 34 28.4 34C27.4611 34 26.7 34.7611 26.7 35.7C26.7 36.6389 27.4611 37.4 28.4 37.4Z" stroke="#444444" stroke-width="0.5" stroke-miterlimit="10" stroke-linecap="round" stroke-linejoin="round"/>
<path d="M39.1 35.5999C40.5359 35.5999 41.7 34.4358 41.7 32.9999C41.7 31.564 40.5359 30.3999 39.1 30.3999C37.6641 30.3999 36.5 31.564 36.5 32.9999C36.5 34.4358 37.6641 35.5999 39.1 35.5999Z" stroke="#444444" stroke-width="0.5" stroke-miterlimit="10" stroke-linecap="round" stroke-linejoin="round"/>
<path d="M48.6999 37.6001V30.2001C48.6999 26.5001 45.6999 23.5001 41.9999 23.5001H40.3999V13.3001C40.3999 11.8001 39.1999 10.6001 37.6999 10.6001H4.0999C2.5999 10.6001 1.3999 11.8001 1.3999 13.3001V34.8001C1.3999 36.3001 2.5999 37.5001 4.0999 37.5001L19.7999 37.6001C19.7999 41.3001 22.7999 44.3001 26.4999 44.3001H41.9999" stroke="#444444" stroke-width="2.5" stroke-miterlimit="10" stroke-linecap="round" stroke-linejoin="round"/>
</svg>

<svg xmlns="http://www.w3.org/2000/svg" fill="none" viewBox="0 0 50 50"><path fill="#E589EF" d="M47.2 25.6l-5.8-2.8-1.3-11.3-17.5-1.1c-3.2 0-21.1-2.5-21.1.7l.7 25.6L20 38l1.7 4.9 7.4 1.6 19.2-6.8c.9-.4-.1-10-1.1-12.1z"/><path fill="#444" d="M19.2 36.7H3c-.4 0-.7-.3-.7-.7V15.6h37.1v7.5c0 .3.3.6.6.6s.6-.3.6-.6V12.2c0-1-.8-1.9-1.9-1.9H3c-1 0-1.9.8-1.9 1.9v23.7c0 1 .8 1.9 1.9 1.9h16.3c.3 0 .6-.3.6-.6s-.3-.5-.7-.5zM2.3 12.2c0-.4.3-.7.7-.7h35.7c.4 0 .7.3.7.7v2.2H2.3v-2.2z"/><path fill="#444" d="M33.2 12.5H33c-.3 0-.6.3-.6.6s.3.6.6.6h.2c.3 0 .6-.3.6-.6s-.3-.6-.6-.6zm2.1 0h-.2c-.3 0-.6.3-.6.6s.3.6.6.6h.2c.3 0 .6-.3.6-.6-.1-.3-.3-.6-.6-.6zm2 0h-.2c-.3 0-.6.3-.6.6s.3.6.6.6h.2c.3 0 .6-.3.6-.6s-.3-.6-.6-.6zM33 38.9c-.1-.2-.3-.4-.6-.4h-.2c-.2 0-.3.2-.4.3-.1.1-.1.3 0 .5v.1l.1.3-.8.6-.7-.5c-.1-.1-.2-.1-.4-.1h-.3c-.3.1-.6.2-1 .3-.2 0-.4.2-.5.4l-.3.8-1-.1-.1-.8c0-.2-.2-.4-.4-.5-.3-.1-.6-.3-.9-.5-.1-.1-.2-.1-.3-.1h-.5l-.6.2-.6-.8.5-.7c.1-.2.2-.4.1-.6-.1-.3-.2-.6-.3-1 0-.2-.2-.4-.4-.5l-.8-.3.1-1h.3l.5-.1c.2 0 .4-.2.5-.4.1-.3.3-.6.5-.9.1-.2.2-.4.1-.6l-.3-.8.8-.6.7.5c.1.1.2.1.4.1h.3c.3-.1.6-.2 1-.3.2 0 .4-.2.5-.4l.3-.8 1 .1v.4c.1.3.3.4.6.4h.2c.3-.1.5-.4.4-.7l.2-.4c0-.3-.3-.6-.7-.7l-1.7-.2h-.1c-.3 0-.6.2-.8.5l-.3.8c-.2 0-.4.1-.5.1L26 30c-.1-.1-.3-.2-.4-.2-.2 0-.4 0-.5.2l-1.4 1c-.3.2-.4.6-.2.9l.3.8c-.1.2-.2.3-.3.5l-.8.1c-.2 0-.3.1-.5.2-.1.1-.2.3-.2.4l-.2 1.7c0 .3.2.7.5.8l.8.3c0 .2.1.4.1.5l-.5.7c-.2.3-.2.7 0 .9l1.1 1.4.2.2c.1.1.2.1.4.1.1 0 .2 0 .3-.1l.8-.3c.1.1.3.2.4.2h.1l.1.8c0 .3.3.6.7.7l1.3.2.4.1h.1c.3 0 .6-.2.8-.5l.3-.8c.2 0 .4-.1.5-.1l.7.5c.1.1.3.2.4.2h.3c.1 0 .2-.1.2-.1l1.4-1c.3-.2.4-.6.2-.9l-.4-.5z"/><path fill="#444" d="M46.3 31.6l-1-.3c-.1-.3-.2-.5-.3-.7l.6-.9c.2-.3.2-.7-.1-1l-.7-.8-.6-.7c-.1-.1-.2-.2-.3-.2-.2-.1-.5-.1-.7 0l-.7.4-.2.1c-.2-.1-.5-.2-.7-.3l-.2-1.1c-.1-.4-.4-.6-.7-.6l-2-.1c-.4 0-.7.2-.8.6l-.3 1c-.3.1-.5.2-.7.3l-.9-.6c-.3-.2-.7-.2-1 .1L33.3 28c-.3.2-.3.6-.2 1l.5 1c-.1.2-.2.5-.3.7l-1.1.2c-.4.1-.6.4-.6.7l-.1 2c0 .4.2.7.6.8l1 .3c.1.3.2.5.3.7l-.6.9c-.2.3-.2.7.1 1l1.4 1.5c0 .1.1.1.2.1.2.1.5.2.8 0l1-.5c.2.1.5.2.7.3l.2 1.1c.1.4.4.6.7.6l2 .1h.3c.2-.1.4-.3.5-.5l.3-1c.3-.1.5-.2.7-.3l.9.6c.3.2.7.2.9 0l1.5-1.4c.3-.2.3-.6.2-1l-.5-1c.1-.2.3-.5.3-.7l1-.2c.4-.1.6-.4.6-.7l.1-2c.2-.3 0-.6-.4-.7zm-.7 2.4l-.9.2h-.1c-.1 0-.3.1-.4.2 0 .1-.1.1-.1.2-.1.4-.3.7-.5 1.1-.1.2-.1.4 0 .6l.5 1-1 .9-.9-.6c-.2-.1-.4-.1-.6 0-.4.2-.7.3-1.1.4-.1 0-.2.1-.2.1-.1.1-.2.2-.2.3l-.3 1-1.4-.1-.4-1c0-.2-.2-.4-.4-.5-.4-.1-.7-.3-1.1-.5-.2-.1-.4-.1-.6 0l-1 .5-.9-1 .6-.9c.1-.2.1-.4 0-.6-.2-.4-.3-.7-.4-1.1 0-.2-.2-.4-.4-.5l-1-.3.1-1.4 1.1-.2c.2 0 .4-.2.5-.4.1-.4.3-.7.5-1.1.1-.2.1-.4 0-.6l-.5-1 1-.9.9.6c.2.1.4.1.6 0 .4-.2.7-.3 1.1-.4.2 0 .4-.2.5-.4l.3-1 1.4.1.2 1.1c0 .2.2.4.4.5.4.1.7.3 1.1.5.2.1.4.1.6 0l1-.5.3.4.6.6-.6.9c-.1.2-.1.4 0 .6.2.4.3.7.4 1.1 0 .2.2.4.4.5l1 .3-.1 1.3zM29.9 22.4H11.7c-.6 0-1.1.2-1.5.6-.4.4-.6 1-.6 1.5s.2 1.1.6 1.5c.4.4.9.6 1.5.6h18.2c1.2 0 2.2-1 2.2-2.2 0-.4-.1-.7-.3-1.1-.4-.5-1.1-.9-1.9-.9zm0 3.2H11.7c-.6 0-1-.5-1-1 0-.6.5-1 1-1h18.1c.4 0 .7.2.9.5.1.2.1.3.1.5.1.6-.3 1-.9 1z"/><path stroke="#444" stroke-linecap="round" stroke-linejoin="round" stroke-miterlimit="10" stroke-width=".5" d="M11.9 24.6H19m9.4 12.8a1.7 1.7 0 100-3.4 1.7 1.7 0 000 3.4zm10.7-1.8a2.6 2.6 0 100-5.2 2.6 2.6 0 000 5.2z"/><path stroke="#444" stroke-linecap="round" stroke-linejoin="round" stroke-miterlimit="10" stroke-width="2.5" d="M48.7 37.6v-7.4c0-3.7-3-6.7-6.7-6.7h-1.6V13.3c0-1.5-1.2-2.7-2.7-2.7H4.1c-1.5 0-2.7 1.2-2.7 2.7v21.5c0 1.5 1.2 2.7 2.7 2.7l15.7.1c0 3.7 3 6.7 6.7 6.7H42"/></svg>
